icons/modern/three-oclock.svg

<svg width="32" height="32" viewBox="0 0 32 32" fill="none" xmlns="http://www.w3.org/2000/svg">
<path d="M30 16.0112C30 23.7432 23.732 30.0112 16 30.0112C8.26801 30.0112 2 23.7432 2 16.0112C2 8.27924 8.26801 2.01123 16 2.01123C23.732 2.01123 30 8.27924 30 16.0112Z" fill="url(#paint0_radial_18_13525)"/>
<g filter="url(#filter0_f_18_13525)">
<path d="M15.0288 8.0271C15.5811 8.0271 16.0288 8.47482 16.0288 9.0271V15.3015C16.3237 15.4728 16.5706 15.7178 16.7441 16.0112H21C21.5523 16.0112 22 16.459 22 17.0112C22 17.5635 21.5523 18.0112 21 18.0112H16.7572C16.4141 18.6088 15.7696 19.0112 15.0312 19.0112C13.9328 19.0112 13.0424 18.1208 13.0424 17.0224C13.0424 16.2896 13.4387 15.6493 14.0288 15.3043V9.0271C14.0288 8.47482 14.4765 8.0271 15.0288 8.0271Z" fill="#C7C3CA"/>
</g>
<g filter="url(#filter1_i_18_13525)">
<path fill-rule="evenodd" clip-rule="evenodd" d="M16.0288 7.0271C16.5811 7.0271 17.0288 7.47481 17.0288 8.0271V16.0225C17.0288 16.5748 16.5811 17.0225 16.0288 17.0225C15.4765 17.0225 15.0288 16.5748 15.0288 16.0225V8.0271C15.0288 7.47481 15.4765 7.0271 16.0288 7.0271Z" fill="url(#paint1_linear_18_13525)"/>
</g>
<path fill-rule="evenodd" clip-rule="evenodd" d="M23 16.0112C23 16.5635 22.5523 17.0112 22 17.0112H16.0328C15.4806 17.0112 15.0328 16.5635 15.0328 16.0112C15.0328 15.4589 15.4806 15.0112 16.0328 15.0112H22C22.5523 15.0112 23 15.4589 23 16.0112Z" fill="url(#paint2_linear_18_13525)"/>
<path fill-rule="evenodd" clip-rule="evenodd" d="M23 16.0112C23 16.5635 22.5523 17.0112 22 17.0112H16.0328C15.4806 17.0112 15.0328 16.5635 15.0328 16.0112C15.0328 15.4589 15.4806 15.0112 16.0328 15.0112H22C22.5523 15.0112 23 15.4589 23 16.0112Z" fill="url(#paint3_linear_18_13525)"/>
<path fill-rule="evenodd" clip-rule="evenodd" d="M23 16.0112C23 16.5635 22.5523 17.0112 22 17.0112H16.0328C15.4806 17.0112 15.0328 16.5635 15.0328 16.0112C15.0328 15.4589 15.4806 15.0112 16.0328 15.0112H22C22.5523 15.0112 23 15.4589 23 16.0112Z" fill="url(#paint4_radial_18_13525)"/>
<path fill-rule="evenodd" clip-rule="evenodd" d="M23 16.0112C23 16.5635 22.5523 17.0112 22 17.0112H16.0328C15.4806 17.0112 15.0328 16.5635 15.0328 16.0112C15.0328 15.4589 15.4806 15.0112 16.0328 15.0112H22C22.5523 15.0112 23 15.4589 23 16.0112Z" fill="url(#paint5_linear_18_13525)"/>
<g filter="url(#filter2_ii_18_13525)">
<path fill-rule="evenodd" clip-rule="evenodd" d="M16 27.0112C22.0751 27.0112 27 22.0864 27 16.0112C27 9.9361 22.0751 5.01123 16 5.01123C9.92487 5.01123 5 9.9361 5 16.0112C5 22.0864 9.92487 27.0112 16 27.0112ZM16 30.0112C23.732 30.0112 30 23.7432 30 16.0112C30 8.27924 23.732 2.01123 16 2.01123C8.26801 2.01123 2 8.27924 2 16.0112C2 23.7432 8.26801 30.0112 16 30.0112Z" fill="url(#paint6_linear_18_13525)"/>
</g>
<path d="M18.02 16.0223C18.02 17.1207 17.1296 18.0111 16.0312 18.0111C14.9328 18.0111 14.0424 17.1207 14.0424 16.0223C14.0424 14.9239 14.9328 14.0334 16.0312 14.0334C17.1296 14.0334 18.02 14.9239 18.02 16.0223Z" fill="url(#paint7_radial_18_13525)"/>
<path d="M18.02 16.0223C18.02 17.1207 17.1296 18.0111 16.0312 18.0111C14.9328 18.0111 14.0424 17.1207 14.0424 16.0223C14.0424 14.9239 14.9328 14.0334 16.0312 14.0334C17.1296 14.0334 18.02 14.9239 18.02 16.0223Z" fill="url(#paint8_radial_18_13525)"/>
<defs>
<filter id="filter0_f_18_13525" x="11.5424" y="6.5271" width="11.9576" height="13.9841" filterUnits="userSpaceOnUse" color-interpolation-filters="sRGB">
<feFlood flood-opacity="0" result="BackgroundImageFix"/>
<feBlend mode="normal" in="SourceGraphic" in2="BackgroundImageFix" result="shape"/>
<feGaussianBlur stdDeviation="0.75" result="effect1_foregroundBlur_18_13525"/>
</filter>
<filter id="filter1_i_18_13525" x="15.0288" y="7.0271" width="2.6" height="9.99536" filterUnits="userSpaceOnUse" color-interpolation-filters="sRGB">
<feFlood flood-opacity="0" result="BackgroundImageFix"/>
<feBlend mode="normal" in="SourceGraphic" in2="BackgroundImageFix" result="shape"/>
<feColorMatrix in="SourceAlpha" type="matrix" values="0 0 0 0 0 0 0 0 0 0 0 0 0 0 0 0 0 0 127 0" result="hardAlpha"/>
<feOffset dx="0.6"/>
<feGaussianBlur stdDeviation="0.425"/>
<feComposite in2="hardAlpha" operator="arithmetic" k2="-1" k3="1"/>
<feColorMatrix type="matrix" values="0 0 0 0 0.635294 0 0 0 0 0.227451 0 0 0 0 0.403922 0 0 0 1 0"/>
<feBlend mode="normal" in2="shape" result="effect1_innerShadow_18_13525"/>
</filter>
<filter id="filter2_ii_18_13525" x="1.6" y="1.61123" width="28.8" height="28.8" filterUnits="userSpaceOnUse" color-interpolation-filters="sRGB">
<feFlood flood-opacity="0" result="BackgroundImageFix"/>
<feBlend mode="normal" in="SourceGraphic" in2="BackgroundImageFix" result="shape"/>
<feColorMatrix in="SourceAlpha" type="matrix" values="0 0 0 0 0 0 0 0 0 0 0 0 0 0 0 0 0 0 127 0" result="hardAlpha"/>
<feOffset dx="0.4" dy="-0.4"/>
<feGaussianBlur stdDeviation="0.3"/>
<feComposite in2="hardAlpha" operator="arithmetic" k2="-1" k3="1"/>
<feColorMatrix type="matrix" values="0 0 0 0 0.282353 0 0 0 0 0.254902 0 0 0 0 0.313726 0 0 0 1 0"/>
<feBlend mode="normal" in2="shape" result="effect1_innerShadow_18_13525"/>
<feColorMatrix in="SourceAlpha" type="matrix" values="0 0 0 0 0 0 0 0 0 0 0 0 0 0 0 0 0 0 127 0" result="hardAlpha"/>
<feOffset dx="-0.4" dy="0.4"/>
<feGaussianBlur stdDeviation="0.3"/>
<feComposite in2="hardAlpha" operator="arithmetic" k2="-1" k3="1"/>
<feColorMatrix type="matrix" values="0 0 0 0 0.533333 0 0 0 0 0.533333 0 0 0 0 0.533333 0 0 0 1 0"/>
<feBlend mode="normal" in2="effect1_innerShadow_18_13525" result="effect2_innerShadow_18_13525"/>
</filter>
<radialGradient id="paint0_radial_18_13525" cx="0" cy="0" r="1" gradientUnits="userSpaceOnUse" gradientTransform="translate(9.57405 24.5095) rotate(-46.2124) scale(25.2966)">
<stop offset="0.598155" stop-color="#DDDADF"/>
<stop offset="1" stop-color="#BDBABF"/>
</radialGradient>
<linearGradient id="paint1_linear_18_13525" x1="16.0288" y1="7.0271" x2="16.0288" y2="17.0225" gradientUnits="userSpaceOnUse">
<stop stop-color="#F83F4C"/>
<stop offset="1" stop-color="#F74093"/>
</linearGradient>
<linearGradient id="paint2_linear_18_13525" x1="23" y1="16.0112" x2="17.1886" y2="16.0112" gradientUnits="userSpaceOnUse">
<stop stop-color="#32183D"/>
<stop offset="1" stop-color="#2C3A65"/>
</linearGradient>
<linearGradient id="paint3_linear_18_13525" x1="19.9698" y1="15.0112" x2="19.9698" y2="16.0112" gradientUnits="userSpaceOnUse">
<stop stop-color="#2E2840"/>
<stop offset="1" stop-color="#2E2840" stop-opacity="0"/>
</linearGradient>
<radialGradient id="paint4_radial_18_13525" cx="0" cy="0" r="1" gradientUnits="userSpaceOnUse" gradientTransform="translate(22.6076 16.6206) rotate(180) scale(5.73026 0.815281)">
<stop stop-color="#50375F"/>
<stop offset="1" stop-color="#50375F" stop-opacity="0"/>
</radialGradient>
<linearGradient id="paint5_linear_18_13525" x1="23" y1="16.0112" x2="22.2823" y2="16.0112" gradientUnits="userSpaceOnUse">
<stop stop-color="#3E1846"/>
<stop offset="1" stop-color="#3E1846" stop-opacity="0"/>
</linearGradient>
<linearGradient id="paint6_linear_18_13525" x1="24.5108" y1="4.02472" x2="4.28379" y2="28.5448" gradientUnits="userSpaceOnUse">
<stop stop-color="#6D6B70"/>
<stop offset="1" stop-color="#706C74"/>
</linearGradient>
<radialGradient id="paint7_radial_18_13525" cx="0" cy="0" r="1" gradientUnits="userSpaceOnUse" gradientTransform="translate(17.111 15.5638) rotate(134.039) scale(3.40442)">
<stop stop-color="#C9C6CC"/>
<stop offset="1" stop-color="#928E95"/>
</radialGradient>
<radialGradient id="paint8_radial_18_13525" cx="0" cy="0" r="1" gradientUnits="userSpaceOnUse" gradientTransform="translate(16.5937 15.5158) rotate(139.399) scale(2.88111)">
<stop offset="0.527069" stop-color="#776F7F" stop-opacity="0"/>
<stop offset="1" stop-color="#776F7F"/>
</radialGradient>
</defs>
</svg>

<svg width="32" height="32" fill="none" xmlns="http://www.w3.org/2000/svg"><path d="M30 16.011c0 7.732-6.268 14-14 14s-14-6.268-14-14 6.268-14 14-14 14 6.268 14 14Z" fill="url(#a)"/><g filter="url(#b)"><path d="M15.029 8.027a1 1 0 0 1 1 1v6.275c.295.17.542.416.715.71H21a1 1 0 0 1 0 2h-4.243a1.988 1.988 0 1 1-2.728-2.708V9.027a1 1 0 0 1 1-1Z" fill="#C7C3CA"/></g><g filter="url(#c)"><path fill-rule="evenodd" clip-rule="evenodd" d="M16.029 7.027a1 1 0 0 1 1 1v7.996a1 1 0 1 1-2 0V8.027a1 1 0 0 1 1-1Z" fill="url(#d)"/></g><path fill-rule="evenodd" clip-rule="evenodd" d="M23 16.011a1 1 0 0 1-1 1h-5.967a1 1 0 0 1 0-2H22a1 1 0 0 1 1 1Z" fill="url(#e)"/><path fill-rule="evenodd" clip-rule="evenodd" d="M23 16.011a1 1 0 0 1-1 1h-5.967a1 1 0 0 1 0-2H22a1 1 0 0 1 1 1Z" fill="url(#f)"/><path fill-rule="evenodd" clip-rule="evenodd" d="M23 16.011a1 1 0 0 1-1 1h-5.967a1 1 0 0 1 0-2H22a1 1 0 0 1 1 1Z" fill="url(#g)"/><path fill-rule="evenodd" clip-rule="evenodd" d="M23 16.011a1 1 0 0 1-1 1h-5.967a1 1 0 0 1 0-2H22a1 1 0 0 1 1 1Z" fill="url(#h)"/><g filter="url(#i)"><path fill-rule="evenodd" clip-rule="evenodd" d="M16 27.011c6.075 0 11-4.925 11-11s-4.925-11-11-11-11 4.925-11 11 4.925 11 11 11Zm0 3c7.732 0 14-6.268 14-14s-6.268-14-14-14-14 6.268-14 14 6.268 14 14 14Z" fill="url(#j)"/></g><path d="M18.02 16.022a1.989 1.989 0 1 1-3.978 0 1.989 1.989 0 0 1 3.978 0Z" fill="url(#k)"/><path d="M18.02 16.022a1.989 1.989 0 1 1-3.978 0 1.989 1.989 0 0 1 3.978 0Z" fill="url(#l)"/><defs><linearGradient id="d" x1="16.029" y1="7.027" x2="16.029" y2="17.023" gradientUnits="userSpaceOnUse"><stop stop-color="#F83F4C"/><stop offset="1" stop-color="#F74093"/></linearGradient><linearGradient id="e" x1="23" y1="16.011" x2="17.189" y2="16.011" gradientUnits="userSpaceOnUse"><stop stop-color="#32183D"/><stop offset="1" stop-color="#2C3A65"/></linearGradient><linearGradient id="f" x1="19.97" y1="15.011" x2="19.97" y2="16.011" gradientUnits="userSpaceOnUse"><stop stop-color="#2E2840"/><stop offset="1" stop-color="#2E2840" stop-opacity="0"/></linearGradient><linearGradient id="h" x1="23" y1="16.011" x2="22.282" y2="16.011" gradientUnits="userSpaceOnUse"><stop stop-color="#3E1846"/><stop offset="1" stop-color="#3E1846" stop-opacity="0"/></linearGradient><linearGradient id="j" x1="24.511" y1="4.025" x2="4.284" y2="28.545" gradientUnits="userSpaceOnUse"><stop stop-color="#6D6B70"/><stop offset="1" stop-color="#706C74"/></linearGradient><radialGradient id="a" cx="0" cy="0" r="1" gradientUnits="userSpaceOnUse" gradientTransform="rotate(-46.212 33.51 1.035) scale(25.2966)"><stop offset=".598" stop-color="#DDDADF"/><stop offset="1" stop-color="#BDBABF"/></radialGradient><radialGradient id="g" cx="0" cy="0" r="1" gradientUnits="userSpaceOnUse" gradientTransform="matrix(-5.73026 0 0 -.81528 22.608 16.62)"><stop stop-color="#50375F"/><stop offset="1" stop-color="#50375F" stop-opacity="0"/></radialGradient><radialGradient id="k" cx="0" cy="0" r="1" gradientUnits="userSpaceOnUse" gradientTransform="rotate(134.039 5.255 11.41) scale(3.40442)"><stop stop-color="#C9C6CC"/><stop offset="1" stop-color="#928E95"/></radialGradient><radialGradient id="l" cx="0" cy="0" r="1" gradientUnits="userSpaceOnUse" gradientTransform="rotate(139.399 5.427 10.827) scale(2.88111)"><stop offset=".527" stop-color="#776F7F" stop-opacity="0"/><stop offset="1" stop-color="#776F7F"/></radialGradient><filter id="b" x="11.542" y="6.527" width="11.958" height="13.984" filterUnits="userSpaceOnUse" color-interpolation-filters="sRGB"><feFlood flood-opacity="0" result="BackgroundImageFix"/><feBlend in="SourceGraphic" in2="BackgroundImageFix" result="shape"/><feGaussianBlur stdDeviation=".75" result="effect1_foregroundBlur_18_13525"/></filter><filter id="c" x="15.029" y="7.027" width="2.6" height="9.995" filterUnits="userSpaceOnUse" color-interpolation-filters="sRGB"><feFlood flood-opacity="0" result="BackgroundImageFix"/><feBlend in="SourceGraphic" in2="BackgroundImageFix" result="shape"/><feColorMatrix in="SourceAlpha" values="0 0 0 0 0 0 0 0 0 0 0 0 0 0 0 0 0 0 127 0" result="hardAlpha"/><feOffset dx=".6"/><feGaussianBlur stdDeviation=".425"/><feComposite in2="hardAlpha" operator="arithmetic" k2="-1" k3="1"/><feColorMatrix values="0 0 0 0 0.635294 0 0 0 0 0.227451 0 0 0 0 0.403922 0 0 0 1 0"/><feBlend in2="shape" result="effect1_innerShadow_18_13525"/></filter><filter id="i" x="1.6" y="1.611" width="28.8" height="28.8" filterUnits="userSpaceOnUse" color-interpolation-filters="sRGB"><feFlood flood-opacity="0" result="BackgroundImageFix"/><feBlend in="SourceGraphic" in2="BackgroundImageFix" result="shape"/><feColorMatrix in="SourceAlpha" values="0 0 0 0 0 0 0 0 0 0 0 0 0 0 0 0 0 0 127 0" result="hardAlpha"/><feOffset dx=".4" dy="-.4"/><feGaussianBlur stdDeviation=".3"/><feComposite in2="hardAlpha" operator="arithmetic" k2="-1" k3="1"/><feColorMatrix values="0 0 0 0 0.282353 0 0 0 0 0.254902 0 0 0 0 0.313726 0 0 0 1 0"/><feBlend in2="shape" result="effect1_innerShadow_18_13525"/><feColorMatrix in="SourceAlpha" values="0 0 0 0 0 0 0 0 0 0 0 0 0 0 0 0 0 0 127 0" result="hardAlpha"/><feOffset dx="-.4" dy=".4"/><feGaussianBlur stdDeviation=".3"/><feComposite in2="hardAlpha" operator="arithmetic" k2="-1" k3="1"/><feColorMatrix values="0 0 0 0 0.533333 0 0 0 0 0.533333 0 0 0 0 0.533333 0 0 0 1 0"/><feBlend in2="effect1_innerShadow_18_13525" result="effect2_innerShadow_18_13525"/></filter></defs></svg>
